public/payments/common/skrill.svg

<svg width="44" height="45" viewBox="0 0 44 45" fill="none" xmlns="http://www.w3.org/2000/svg">
<path d="M34.375 16.6562L37.8125 16.0375V29.375H34.375V16.6562ZM39.875 16.6562V29.375H43.3125V16.0375L39.875 16.6562ZM29.5625 29.375H33V19.75H29.5625V29.375ZM6.05 21.0562C5.56875 21.0562 4.5375 20.9875 4.5375 20.025C4.5375 18.925 6.05 18.925 6.6 18.925C7.5625 18.925 8.86875 19.2 9.7625 19.475L10.7937 19.8188H10.9312V16.725L10.7937 16.6562C9.69375 16.3125 8.3875 15.9 6.11875 15.9C2.13125 16.0375 0.6875 18.375 0.6875 20.3687C0.6875 21.5375 1.16875 24.2188 5.775 24.5625C6.1875 24.5625 7.21875 24.6313 7.21875 25.5938C7.21875 26.4187 6.25625 26.8312 4.8125 26.8312C3.23125 26.8312 2.0625 26.4188 0.6875 26.075V29.2375C2.0625 29.5812 3.7125 29.7875 5.56875 29.7875C9.4875 29.7875 11.275 27.5875 11.275 25.3875C11.275 22.9125 9.35 21.3312 6.05 21.0562ZM27.4313 19.5438C24.1313 19.6125 22.6875 21.125 22.6875 24.0125V29.375H26.125V25.0438C26.125 23.325 26.125 22.5687 28.1875 22.5V19.6125C28.1875 19.475 27.4313 19.5438 27.4313 19.5438ZM17.875 19.75C17.8062 19.75 17.1875 21.4688 15.8125 23.1188V16.0375L12.375 16.7938V29.375H15.8125V25.6625C17.1875 27.2437 17.4625 29.375 17.4625 29.375H21.8625C21.45 28 19.525 24.425 19.525 24.425C21.2437 22.2937 22 19.75 22.0687 19.75H17.875ZM31.2812 18.7188C32.2437 18.7188 33 17.9625 33 17C33 16.0375 32.2437 15.2812 31.2812 15.2812C30.3188 15.2812 29.5625 16.0375 29.5625 17C29.5625 17.9625 30.3188 18.7188 31.2812 18.7188Z" fill="#B73091"/>
<path d="M35.7499 16.3813L37.8124 16.0375V29.375H34.3749L35.7499 16.3813ZM41.1124 16.45L39.8749 29.375H43.3124V16.0375L41.1124 16.45ZM29.5624 29.375H32.9999V19.75H31.5562L29.5624 29.375ZM0.687402 20.3687C0.687402 21.5375 1.16865 24.2188 5.70615 24.5625C6.11865 24.5625 7.76865 24.6313 7.76865 25.5938C7.76865 26.4187 6.11865 26.8312 4.74365 26.8312C3.1624 26.8312 1.99365 26.4188 0.618652 26.075V29.2375C1.99365 29.5812 3.64365 29.7875 5.4999 29.7875C9.41865 29.7875 11.2062 27.5875 11.2062 25.3875C11.2062 22.9125 9.28115 21.3312 5.98115 21.0562C5.4999 21.0562 4.5374 20.9875 4.5374 20.025C4.5374 18.925 6.0499 18.925 6.5999 18.925C7.5624 18.925 8.86865 19.2 9.7624 19.475L10.7937 19.8188H10.9312V16.725L10.7937 16.6562C9.69365 16.3125 8.3874 15.9 6.11865 15.9M22.6874 23.875V29.375H26.1249V25.0438C26.1249 23.325 26.1249 22.5687 28.1874 22.5V19.6125C28.1874 19.5437 27.4312 19.5438 27.4312 19.5438M12.3749 29.375H15.8124V25.6625C17.1874 27.2437 18.7687 29.375 18.7687 29.375H21.7937C21.3812 28 19.4562 24.425 19.4562 24.425C21.1749 22.2937 21.9312 19.75 21.9999 19.75H19.9374C19.8687 19.75 17.1874 21.4688 15.8124 23.1188V16.3125M31.2812 18.7188C32.2437 18.7188 32.9999 17.9625 32.9999 17C32.9999 16.0375 32.2437 15.2812 31.2812 15.2812" fill="#862165"/>
</svg>

<svg xmlns="http://www.w3.org/2000/svg" width="44" height="45" fill="none"><path fill="#B73091" d="m34.38 16.66 3.43-.62v13.34h-3.44V16.66Zm5.5 0v12.71h3.43V16.05l-3.44.62ZM29.55 29.37H33v-9.62h-3.44v9.63ZM6.05 21.06c-.48 0-1.51-.07-1.51-1.04 0-1.1 1.51-1.1 2.06-1.1.96 0 2.27.28 3.16.55l1.03.35h.14v-3.1l-.14-.06c-1.1-.35-2.4-.76-4.67-.76-3.99.14-5.43 2.47-5.43 4.47 0 1.17.48 3.85 5.09 4.2.4 0 1.44.06 1.44 1.02 0 .83-.96 1.24-2.4 1.24-1.59 0-2.76-.41-4.13-.75v3.16c1.37.34 3.02.55 4.88.55 3.92 0 5.7-2.2 5.7-4.4 0-2.48-1.92-4.06-5.22-4.33Zm21.38-1.52c-3.3.07-4.74 1.59-4.74 4.47v5.36h3.43v-4.33c0-1.71 0-2.47 2.07-2.54v-2.89c0-.13-.76-.07-.76-.07Zm-9.55.21c-.07 0-.7 1.72-2.07 3.37v-7.08l-3.44.75v12.59h3.44v-3.72a7.88 7.88 0 0 1 1.65 3.71h4.4c-.41-1.37-2.34-4.95-2.34-4.95 1.72-2.13 2.48-4.67 2.55-4.67h-4.2Zm13.4-1.03A1.7 1.7 0 0 0 33 17a1.7 1.7 0 0 0-1.72-1.72A1.7 1.7 0 0 0 29.56 17c0 .96.76 1.72 1.72 1.72Z"/><path fill="#862165" d="m35.75 16.38 2.06-.34v13.34h-3.44l1.38-13Zm5.36.07-1.24 12.93h3.44V16.04l-2.2.41ZM29.56 29.38H33v-9.63h-1.44l-2 9.63ZM.7 20.37c0 1.17.48 3.85 5.02 4.2.4 0 2.06.06 2.06 1.02 0 .83-1.65 1.24-3.03 1.24-1.58 0-2.75-.41-4.12-.75v3.16c1.37.34 3.02.55 4.88.55 3.92 0 5.7-2.2 5.7-4.4 0-2.48-1.92-4.06-5.22-4.33-.48 0-1.44-.07-1.44-1.04 0-1.1 1.51-1.1 2.06-1.1.96 0 2.27.28 3.16.55l1.03.35h.14v-3.1l-.14-.06c-1.1-.35-2.4-.76-4.67-.76m16.57 7.97v5.5h3.43v-4.33c0-1.71 0-2.47 2.07-2.54v-2.89c0-.07-.76-.07-.76-.07m-15.06 9.84h3.44v-3.72a73.78 73.78 0 0 1 2.96 3.71h3.02c-.4-1.37-2.33-4.95-2.33-4.95 1.71-2.13 2.47-4.67 2.54-4.67h-2.06c-.07 0-2.75 1.72-4.13 3.37v-6.8m15.47 2.4A1.7 1.7 0 0 0 33 17a1.7 1.7 0 0 0-1.72-1.72"/></svg>
